img/icon-work.svg

<svg width="24" height="24" viewBox="0 0 24 24" fill="none" xmlns="http://www.w3.org/2000/svg">
<path d="M12 2C10.0222 2 8.08879 2.58649 6.4443 3.6853C4.79981 4.78412 3.51809 6.3459 2.76121 8.17317C2.00433 10.0004 1.8063 12.0111 2.19215 13.9509C2.578 15.8907 3.53041 17.6725 4.92894 19.0711C6.32746 20.4696 8.10929 21.422 10.0491 21.8079C11.9889 22.1937 13.9996 21.9957 15.8268 21.2388C17.6541 20.4819 19.2159 19.2002 20.3147 17.5557C21.4135 15.9112 22 13.9778 22 12C22 10.6868 21.7413 9.38642 21.2388 8.17317C20.7363 6.95991 19.9997 5.85752 19.0711 4.92893C18.1425 4.00035 17.0401 3.26375 15.8268 2.7612C14.6136 2.25866 13.3132 2 12 2ZM12 20C10.4178 20 8.87104 19.5308 7.55544 18.6518C6.23985 17.7727 5.21447 16.5233 4.60897 15.0615C4.00347 13.5997 3.84504 11.9911 4.15372 10.4393C4.4624 8.88743 5.22433 7.46197 6.34315 6.34315C7.46197 5.22433 8.88743 4.4624 10.4393 4.15372C11.9911 3.84504 13.5997 4.00346 15.0615 4.60896C16.5233 5.21447 17.7727 6.23984 18.6518 7.55544C19.5308 8.87103 20 10.4177 20 12C20 14.1217 19.1572 16.1566 17.6569 17.6569C16.1566 19.1571 14.1217 20 12 20ZM15.1 12.63L13 11.42V7C13 6.73478 12.8946 6.48043 12.7071 6.29289C12.5196 6.10536 12.2652 6 12 6C11.7348 6 11.4804 6.10536 11.2929 6.29289C11.1054 6.48043 11 6.73478 11 7V12C11 12 11 12.08 11 12.12C11.0059 12.1889 11.0228 12.2564 11.05 12.32C11.0706 12.3793 11.0974 12.4363 11.13 12.49C11.1574 12.5468 11.1909 12.6005 11.23 12.65L11.39 12.78L11.48 12.87L14.08 14.37C14.2324 14.4564 14.4048 14.5012 14.58 14.5C14.8014 14.5015 15.0171 14.4296 15.1932 14.2953C15.3693 14.1611 15.4959 13.9722 15.5531 13.7583C15.6103 13.5444 15.5948 13.3176 15.5092 13.1134C15.4236 12.9092 15.2726 12.7392 15.08 12.63H15.1Z" fill="#3F5199"/>
</svg>

<svg width="24" height="24" fill="none" xmlns="http://www.w3.org/2000/svg"><path d="M12 2a10 10 0 1 0 0 20 10 10 0 0 0 0-20Zm0 18a8 8 0 1 1 0-16.001A8 8 0 0 1 12 20Zm3.1-7.37L13 11.42V7a1 1 0 0 0-2 0v5.12a.65.65 0 0 0 .05.2c.02.06.047.116.08.17.027.057.06.11.1.16l.16.13.09.09 2.6 1.5a1 1 0 0 0 .5.13 1 1 0 0 0 .5-1.87h.02Z" fill="#3F5199"/></svg>
